svgs/sharp-regular/arrow-up-square-triangle.svg

<svg xmlns="http://www.w3.org/2000/svg" viewBox="0 0 576 512"><!--! Font Awesome Pro 6.6.0 by @fontawesome - https://fontawesome.com License - https://fontawesome.com/license (Commercial License) Copyright 2024 Fonticons, Inc. --><path d="M368 80l96 0 0 96-96 0 0-96zM320 32l0 48 0 96 0 48 48 0 96 0 48 0 0-48 0-96 0-48-48 0-96 0-48 0zM160 33.3l-17 17-96 96-17 17L64 197.1l17-17 55-55L136 456l0 24 48 0 0-24 0-330.9 55 55 17 17 33.9-33.9-17-17-96-96-17-17zM296 480l55.4 0 129.2 0 55.4 0-27.7-48L443.7 320 416 272l-27.7 48L323.7 432 296 480zm156.9-48l-73.8 0L416 368.1 452.9 432z"/></svg>

<svg xmlns="http://www.w3.org/2000/svg" viewBox="0 0 576 512"><!--! Font Awesome Pro 6.4.0 by @fontawesome - https://fontawesome.com License - https://fontawesome.com/license (Commercial License) Copyright 2023 Fonticons, Inc. --><path d="M368 80h96v96H368V80zM320 32V80v96 48h48 96 48V176 80 32H464 368 320zM160 33.3l-17 17-96 96-17 17L64 197.1l17-17 55-55V456v24h48V456 125.1l55 55 17 17 33.9-33.9-17-17-96-96-17-17zM296 480h55.4H480.6 536l-27.7-48L443.7 320 416 272l-27.7 48L323.7 432 296 480zm156.9-48H379.1L416 368.1 452.9 432z"/></svg>
